; G-Code generated by Simplify3D(R) Version 3.1.0
; Aug 4, 2017 at 10:29:50 AM
; Settings Summary
;   processName,lower
;   applyToModels,UDpart
;   profileName,dreamer (modified)
;   profileVersion,2017-07-27 16:34:00
;   baseProfile,
;   printMaterial,PLA
;   printQuality,Medium
;   printExtruders,
;   extruderName,Right Extruder,Left Extruder
;   extruderToolheadNumber,0,1
;   extruderDiameter,0.4,0.4
;   extruderAutoWidth,0,0
;   extruderWidth,0.4,0.4
;   extrusionMultiplier,0.9,0.9
;   extruderUseRetract,1,1
;   extruderRetractionDistance,1,1
;   extruderExtraRestartDistance,0,0
;   extruderRetractionZLift,0,0
;   extruderRetractionSpeed,1200,1200
;   extruderUseCoasting,0,0
;   extruderCoastingDistance,0.2,0.2
;   extruderUseWipe,0,0
;   extruderWipeDistance,5,5
;   primaryExtruder,0
;   layerHeight,0.2
;   topSolidLayers,0
;   bottomSolidLayers,0
;   perimeterOutlines,2
;   printPerimetersInsideOut,1
;   startPointOption,2
;   startPointOriginX,0
;   startPointOriginY,0
;   startPointOriginZ,300
;   sequentialIslands,0
;   spiralVaseMode,0
;   firstLayerHeightPercentage,100
;   firstLayerWidthPercentage,125
;   firstLayerUnderspeed,0.35
;   useRaft,0
;   raftExtruder,0
;   raftLayers,3
;   raftOffset,3
;   raftSeparationDistance,0.14
;   raftInfill,85
;   disableRaftBaseLayers,0
;   useSkirt,1
;   skirtExtruder,0
;   skirtLayers,1
;   skirtOutlines,2
;   skirtOffset,4
;   usePrimePillar,0
;   primePillarExtruder,999
;   primePillarWidth,12
;   primePillarLocation,7
;   primePillarSpeedMultiplier,1
;   useOozeShield,0
;   oozeShieldExtruder,999
;   oozeShieldOffset,2
;   oozeShieldOutlines,1
;   oozeShieldSidewallShape,1
;   oozeShieldSidewallAngle,30
;   oozeShieldSpeedMultiplier,1
;   infillExtruder,0
;   internalInfillPattern,Full Honeycomb
;   externalInfillPattern,Rectilinear
;   infillPercentage,50
;   outlineOverlapPercentage,20
;   infillExtrusionWidthPercentage,200
;   minInfillLength,5
;   infillLayerInterval,1
;   infillAngles,120
;   overlapInfillAngles,0
;   generateSupport,0
;   supportExtruder,0
;   supportInfillPercentage,30
;   supportExtraInflation,0
;   denseSupportLayers,0
;   denseSupportInfillPercentage,75
;   supportLayerInterval,1
;   supportHorizontalPartOffset,0.3
;   supportUpperSeparationLayers,1
;   supportLowerSeparationLayers,1
;   supportType,0
;   supportGridSpacing,4
;   maxOverhangAngle,40
;   supportAngles,0
;   temperatureName,Right Extruder,Left Extruder,Heated Build Platform
;   temperatureNumber,0,1,0
;   temperatureSetpointCount,1,1,1
;   temperatureSetpointLayers,1,1,1
;   temperatureSetpointTemperatures,200,0,60
;   temperatureStabilizeAtStartup,0,0,0
;   temperatureHeatedBed,0,0,1
;   temperatureRelayBetweenLayers,0,0,0
;   temperatureRelayBetweenLoops,0,0,0
;   fanLayers,1,2
;   fanSpeeds,0,100
;   blipFanToFullPower,0
;   adjustSpeedForCooling,1
;   minSpeedLayerTime,15
;   minCoolingSpeedSlowdown,20
;   increaseFanForCooling,0
;   minFanLayerTime,45
;   maxCoolingFanSpeed,100
;   increaseFanForBridging,1
;   bridgingFanSpeed,100
;   use5D,1
;   relativeEdistances,0
;   allowEaxisZeroing,0
;   independentExtruderAxes,1
;   includeM10123,0
;   stickySupport,1
;   applyToolheadOffsets,0
;   gcodeXoffset,0
;   gcodeYoffset,0
;   gcodeZoffset,0
;   overrideMachineDefinition,1
;   machineTypeOverride,0
;   strokeXoverride,230
;   strokeYoverride,150
;   strokeZoverride,140
;   originOffsetXoverride,115
;   originOffsetYoverride,75
;   originOffsetZoverride,0
;   homeXdirOverride,1
;   homeYdirOverride,1
;   homeZdirOverride,-1
;   flipXoverride,1
;   flipYoverride,-1
;   flipZoverride,1
;   toolheadOffsets,0,0|0,0|0,0|0,0|0,0|0,0
;   overrideFirmwareConfiguration,0
;   firmwareTypeOverride,RepRap (Marlin/Repetier/Sprinter)
;   GPXconfigOverride,r2
;   baudRateOverride,115200
;   overridePrinterModels,0
;   printerModelsOverride
;   startingGcode,;generated by ffslicer 1.9.0 08/03/17 15:59:01,;start gcode,M118 X62.50 Y14.50 Z3.80 T0,M140 S60,M104 S200 T0,M104 S0 T1,M107,G90,G28,M132 X Y Z A B,G1 Z50.00 F400,G161 X Y F3300,M7,M6 T0,M907 X100 Y100 Z40 A80 B20,M108 T0,G1 X62.50 Y14.50 F4800
;   layerChangeGcode,
;   retractionGcode,
;   toolChangeGcode,M108 T[new_tool]
;   endingGcode,M140 S0 ; cool down HBP,M104 S0 T0 ; cool down right extruder,M104 S0 T1 ; cool down left extruder,G1 Z140 F3300 ; send Z axis to bottom of machine,M107 ; disable cooling fan,G28 X0 Y0 ; home XY axes,M18 ; disable stepper
;   exportFileFormat,gcode
;   celebration,0
;   celebrationSong,Random Song
;   postProcessing,{REPLACE "M106 S0" "M107"}
;   defaultSpeed,3600
;   outlineUnderspeed,0.5
;   solidInfillUnderspeed,0.8
;   supportUnderspeed,0.8
;   rapidXYspeed,4200
;   rapidZspeed,1200
;   minBridgingArea,50
;   bridgingExtraInflation,0
;   bridgingExtrusionMultiplier,1
;   bridgingSpeedMultiplier,0.8
;   filamentDiameter,1.75
;   filamentPricePerKg,46
;   filamentDensity,1.25
;   useMinPrintHeight,0
;   minPrintHeight,0
;   useMaxPrintHeight,0
;   maxPrintHeight,2
;   useDiaphragm,0
;   diaphragmLayerInterval,20
;   robustSlicing,1
;   mergeAllIntoSolid,0
;   onlyRetractWhenCrossingOutline,1
;   retractBetweenLayers,1
;   useRetractionMinTravel,0
;   retractionMinTravel,3
;   retractWhileWiping,0
;   onlyWipeOutlines,1
;   avoidCrossingOutline,0
;   maxMovementDetourFactor,3
;   toolChangeRetractionDistance,12
;   toolChangeExtraRestartDistance,-0.5
;   toolChangeRetractionSpeed,600
;   allowThinWallGapFill,1
;   thinWallAllowedOverlapPercentage,10
;   horizontalSizeCompensation,0
G90
M82
M107
M140 S60
M104 S200 T0
M104 S0 T1
;generated by ffslicer 1.9.0 08/03/17 15:59:01
;start gcode
M118 X62.50 Y14.50 Z3.80 T0
M140 S60
M104 S200 T0
M104 S0 T1
M107
G90
G28
M132 X Y Z A B
G1 Z50.00 F400
G161 X Y F3300
M7
M6 T0
M907 X100 Y100 Z40 A80 B20
M108 T0
G1 X62.50 Y14.50 F4800
G1 E-1.0000 F1200
G1 Z0.200 F1200
; layer 1, Z = 0.2
M108 T0
; tool H0.200 W0.500
; skirt
G1 X15.601 Y-7.600 F4200
G1 E0.0000 F360
G1 X31.154 Y-13.918 E0.6281 F1260
G1 X31.210 Y-13.935 E0.6303
G1 X32.026 Y-14.094 E0.6614
G1 X32.084 Y-14.100 E0.6636
G1 X59.276 Y-14.100 E1.6811
G1 X59.497 Y-14.009 E1.6900
G1 X62.009 Y-11.497 E1.8229
G1 X62.100 Y-11.276 E1.8319
G1 X62.100 Y11.276 E2.6757
G1 X62.009 Y11.497 E2.6847
G1 X59.497 Y14.009 E2.8176
G1 X59.276 Y14.100 E2.8265
G1 X32.084 Y14.100 E3.8440
G1 X32.026 Y14.094 E3.8461
G1 X31.210 Y13.935 E3.8773
G1 X31.154 Y13.918 E3.8794
G1 X15.601 Y7.600 E4.5076
G1 X-15.601 Y7.600 E5.6751
G1 X-31.154 Y13.918 E6.3033
G1 X-31.210 Y13.935 E6.3054
G1 X-32.026 Y14.094 E6.3366
G1 X-32.084 Y14.100 E6.3387
G1 X-59.276 Y14.100 E7.3562
G1 X-59.497 Y14.009 E7.3651
G1 X-62.009 Y11.497 E7.4980
G1 X-62.100 Y11.276 E7.5070
G1 X-62.100 Y-11.276 E8.3508
G1 X-62.009 Y-11.497 E8.3598
G1 X-59.497 Y-14.009 E8.4927
G1 X-59.276 Y-14.100 E8.5016
G1 X-32.084 Y-14.100 E9.5191
G1 X-32.026 Y-14.094 E9.5213
G1 X-31.210 Y-13.935 E9.5524
G1 X-31.154 Y-13.918 E9.5546
G1 X-15.601 Y-7.600 E10.1827
G1 X15.601 Y-7.600 E11.3502
G1 X15.679 Y-7.200 F4200
G1 X31.287 Y-13.540 E11.9806 F1260
G1 X31.305 Y-13.546 E11.9813
G1 X32.084 Y-13.698 E12.0110
G1 X32.103 Y-13.700 E12.0117
G1 X59.197 Y-13.700 E13.0255
G1 X59.270 Y-13.670 E13.0285
G1 X61.670 Y-11.270 E13.1554
G1 X61.700 Y-11.197 E13.1584
G1 X61.700 Y11.197 E13.9963
G1 X61.670 Y11.270 E13.9993
G1 X59.270 Y13.670 E14.1262
G1 X59.197 Y13.700 E14.1292
G1 X32.103 Y13.700 E15.1430
G1 X32.084 Y13.698 E15.1437
G1 X31.305 Y13.546 E15.1734
G1 X31.287 Y13.540 E15.1741
G1 X15.679 Y7.200 E15.8045
G1 X-15.679 Y7.200 E16.9778
G1 X-31.287 Y13.540 E17.6082
G1 X-31.305 Y13.546 E17.6089
G1 X-32.084 Y13.698 E17.6386
G1 X-32.103 Y13.700 E17.6393
G1 X-59.197 Y13.700 E18.6531
G1 X-59.270 Y13.670 E18.6561
G1 X-61.670 Y11.270 E18.7830
G1 X-61.700 Y11.197 E18.7860
G1 X-61.700 Y-11.197 E19.6239
G1 X-61.670 Y-11.270 E19.6269
G1 X-59.270 Y-13.670 E19.7539
G1 X-59.197 Y-13.700 E19.7568
G1 X-32.103 Y-13.700 E20.7706
G1 X-32.084 Y-13.698 E20.7713
G1 X-31.305 Y-13.546 E20.8010
G1 X-31.287 Y-13.540 E20.8017
G1 X-15.679 Y-7.200 E21.4321
G1 X15.679 Y-7.200 E22.6055
G1 E21.6055 F1200
; inner perimeter
G1 X16.647 Y-2.250 F4200
G1 E22.6055 F1200
G1 X32.647 Y-8.750 E23.2517 F945
G1 X56.750 Y-8.750 E24.1536
G1 X56.750 Y8.750 E24.8084
G1 X32.647 Y8.750 E25.7103
G1 X16.647 Y2.250 E26.3565
G1 X-16.647 Y2.250 E27.6022
G1 X-32.647 Y8.750 E28.2484
G1 X-56.750 Y8.750 E29.1503
G1 X-56.750 Y-8.750 E29.8051
G1 X-32.647 Y-8.750 E30.7070
G1 X-16.647 Y-2.250 E31.3532
G1 X16.647 Y-2.250 E32.5990
; outer perimeter
G1 X16.549 Y-2.750 F4200
G1 X32.549 Y-9.250 E33.2452 F630
G1 X57.250 Y-9.250 E34.1694
G1 X57.250 Y9.250 E34.8616
G1 X32.549 Y9.250 E35.7859
G1 X16.549 Y2.750 E36.4321
G1 X-16.549 Y2.750 E37.6705
G1 X-32.549 Y9.250 E38.3167
G1 X-57.250 Y9.250 E39.2410
G1 X-57.250 Y-9.250 E39.9332
G1 X-32.549 Y-9.250 E40.8575
G1 X-16.549 Y-2.750 E41.5037
G1 X16.549 Y-2.750 E42.7421
; tool H0.200 W1.000
; infill
G1 X56.100 Y4.266 F4200
G1 X54.656 Y4.266 E42.8502 F1260
G1 X53.193 Y6.799 E43.0691
G1 X53.944 Y8.100 E43.1815
G1 X49.979 Y8.100 E43.4782
G1 X50.961 Y6.399 E43.6252
G1 X52.500 Y6.399 E43.7404
G1 X53.963 Y3.866 E43.9593
G1 X53.193 Y2.533 E44.0745
G1 X54.656 Y-0.001 E44.2934
G1 X56.100 Y-0.001 E44.4015
G1 X56.100 Y-4.267 E44.7208
G1 X54.656 Y-4.267 E44.8289
G1 X53.193 Y-1.734 E45.0478
G1 X53.963 Y-0.401 E45.1630
G1 X52.500 Y2.133 E45.3820
G1 X50.961 Y2.133 E45.4972
G1 X49.498 Y4.666 E45.7161
G1 X50.268 Y5.999 E45.8313
G1 X49.055 Y8.100 E46.0128
G1 X46.554 Y8.100 E46.2000
G1 X45.803 Y6.800 E46.3124
G1 X47.266 Y4.266 E46.5313
G1 X48.805 Y4.266 E46.6465
G1 X50.268 Y1.733 E46.8654
G1 X49.498 Y0.399 E46.9806
G1 X50.961 Y-2.134 E47.1996
G1 X52.500 Y-2.134 E47.3148
G1 X53.963 Y-4.667 E47.5337
G1 X53.193 Y-6.001 E47.6489
G1 X54.405 Y-8.100 E47.8303
G1 X53.481 Y-8.100 E47.8994
G1 X52.500 Y-6.401 E48.0463
G1 X50.961 Y-6.401 E48.1615
G1 X49.498 Y-3.867 E48.3804
G1 X50.268 Y-2.534 E48.4956
G1 X48.805 Y-0.001 E48.7145
G1 X47.266 Y-0.001 E48.8298
G1 X45.803 Y2.533 E49.0487
G1 X46.573 Y3.866 E49.1639
G1 X45.110 Y6.400 E49.3828
G1 X43.570 Y6.400 E49.4980
G1 X42.589 Y8.100 E49.6450
G1 X41.665 Y8.100 E49.7141
G1 X42.878 Y6.000 E49.8956
G1 X42.108 Y4.666 E50.0108
G1 X43.571 Y2.133 E50.2297
G1 X45.110 Y2.133 E50.3449
G1 X46.573 Y-0.401 E50.5639
G1 X45.803 Y-1.734 E50.6791
G1 X47.266 Y-4.267 E50.8980
G1 X48.805 Y-4.267 E51.0132
G1 X50.268 Y-6.801 E51.2321
G1 X49.518 Y-8.100 E51.3444
G1 X47.015 Y-8.100 E51.5317
G1 X45.803 Y-6.001 E51.7131
G1 X46.573 Y-4.667 E51.8283
G1 X45.110 Y-2.134 E52.0472
G1 X43.571 Y-2.134 E52.1624
G1 X42.108 Y0.399 E52.3813
G1 X42.878 Y1.733 E52.4966
G1 X41.415 Y4.266 E52.7155
G1 X39.875 Y4.266 E52.8307
G1 X38.413 Y6.800 E53.0496
G1 X39.164 Y8.100 E53.1620
G1 X35.199 Y8.100 E53.4587
G1 X36.180 Y6.400 E53.6056
G1 X37.720 Y6.400 E53.7208
G1 X39.183 Y3.866 E53.9397
G1 X38.413 Y2.533 E54.0550
G1 X39.876 Y-0.000 E54.2739
G1 X41.415 Y-0.001 E54.3891
G1 X42.878 Y-2.534 E54.6080
G1 X42.108 Y-3.867 E54.7232
G1 X43.571 Y-6.401 E54.9421
G1 X45.110 Y-6.401 E55.0574
G1 X46.091 Y-8.100 E55.2042
G1 X42.128 Y-8.100 E55.5008
G1 X42.878 Y-6.801 E55.6131
G1 X41.415 Y-4.267 E55.8320
G1 X39.876 Y-4.267 E55.9472
G1 X38.413 Y-1.734 E56.1662
G1 X39.183 Y-0.400 E56.2814
G1 X37.720 Y2.133 E56.5003
G1 X36.180 Y2.133 E56.6155
G1 X34.718 Y4.666 E56.8344
G1 X35.488 Y6.000 E56.9496
G1 X34.275 Y8.100 E57.1311
G1 X32.774 Y8.100 E57.2435
G1 X31.467 Y7.569 E57.3490
G1 X31.023 Y6.800 E57.4155
G1 X32.485 Y4.266 E57.6344
G1 X34.025 Y4.266 E57.7496
G1 X35.488 Y1.733 E57.9686
G1 X34.718 Y0.400 E58.0838
G1 X36.181 Y-2.134 E58.3027
G1 X37.720 Y-2.134 E58.4179
G1 X39.183 Y-4.667 E58.6368
G1 X38.413 Y-6.001 E58.7520
G1 X39.625 Y-8.100 E58.9335
G1 X38.701 Y-8.100 E59.0026
G1 X37.720 Y-6.401 E59.1494
G1 X36.181 Y-6.401 E59.2647
G1 X34.718 Y-3.867 E59.4836
G1 X35.488 Y-2.534 E59.5988
G1 X34.025 Y-0.000 E59.8177
G1 X32.485 Y-0.000 E59.9329
G1 X31.023 Y2.533 E60.1518
G1 X31.793 Y3.866 E60.2671
G1 X30.330 Y6.400 E60.4860
G1 X28.790 Y6.400 E60.6012
G1 X28.752 Y6.466 E60.6069
G1 X28.004 Y6.162 E60.6674
G1 X28.098 Y6.000 E60.6814
G1 X27.328 Y4.666 E60.7966
G1 X28.790 Y2.133 E61.0155
G1 X30.330 Y2.133 E61.1308
G1 X31.793 Y-0.400 E61.3497
G1 X31.023 Y-1.734 E61.4649
G1 X32.486 Y-4.267 E61.6838
G1 X34.025 Y-4.267 E61.7990
G1 X35.488 Y-6.801 E62.0179
G1 X34.738 Y-8.100 E62.1302
G1 X32.774 Y-8.100 E62.2772
G1 X32.070 Y-7.814 E62.3340
G1 X31.023 Y-6.000 E62.4908
G1 X31.793 Y-4.667 E62.6060
G1 X30.330 Y-2.134 E62.8249
G1 X28.790 Y-2.134 E62.9401
G1 X27.328 Y0.400 E63.1590
G1 X28.098 Y1.733 E63.2742
G1 X26.635 Y4.266 E63.4931
G1 X25.095 Y4.266 E63.6084
G1 X24.761 Y4.845 E63.6584
G1 X24.013 Y4.541 E63.7188
G1 X24.403 Y3.866 E63.7771
G1 X23.633 Y2.533 E63.8923
G1 X25.095 Y-0.000 E64.1112
G1 X26.635 Y-0.000 E64.2264
G1 X28.098 Y-2.534 E64.4454
G1 X27.328 Y-3.867 E64.5606
G1 X28.791 Y-6.400 E64.7795
G1 X30.330 Y-6.400 E64.8947
G1 X30.863 Y-7.324 E64.9745
G1 X27.645 Y-6.017 E65.2345
G1 X26.635 Y-4.267 E65.3856
G1 X25.095 Y-4.267 E65.5009
G1 X23.633 Y-1.734 E65.7198
G1 X24.403 Y-0.400 E65.8350
G1 X22.940 Y2.133 E66.0539
G1 X21.400 Y2.133 E66.1691
G1 X20.771 Y3.224 E66.2634
G1 X20.022 Y2.920 E66.3238
G1 X20.708 Y1.733 E66.4264
G1 X19.938 Y0.400 E66.5416
G1 X21.400 Y-2.134 E66.7605
G1 X22.940 Y-2.134 E66.8757
G1 X24.403 Y-4.667 E67.0946
G1 X24.388 Y-4.693 E67.0969
G1 X20.397 Y-3.072 E67.4192
G1 X20.708 Y-2.534 E67.4658
G1 X19.245 Y-0.000 E67.6847
G1 X17.705 Y-0.000 E67.7999
G1 X16.780 Y1.603 E67.9384
G1 X16.774 Y1.600 E67.9389
G1 X15.858 Y1.600 E68.0074
G1 X17.013 Y-0.400 E68.1803
G1 X16.320 Y-1.600 E68.2840
G1 X13.702 Y-1.600 E68.4798
G1 X12.548 Y0.400 E68.6527
G1 X13.241 Y1.600 E68.7564
G1 X9.391 Y1.600 E69.0444
G1 X10.315 Y-0.000 E69.1827
G1 X11.855 Y-0.000 E69.2979
G1 X12.779 Y-1.600 E69.4361
G1 X8.930 Y-1.600 E69.7242
G1 X9.622 Y-0.400 E69.8278
G1 X8.468 Y1.600 E70.0007
G1 X5.850 Y1.600 E70.1965
G1 X5.158 Y0.400 E70.3002
G1 X6.312 Y-1.600 E70.4731
G1 X5.389 Y-1.600 E70.5422
G1 X4.465 Y-0.000 E70.6804
G1 X2.925 Y-0.000 E70.7957
G1 X2.001 Y1.600 E70.9339
G1 X1.078 Y1.600 E71.0031
G1 X2.232 Y-0.400 E71.1759
G1 X1.540 Y-1.600 E71.2796
G1 X-1.078 Y-1.600 E71.4754
G1 X-2.232 Y0.400 E71.6483
G1 X-1.540 Y1.600 E71.7520
G1 X-5.389 Y1.600 E72.0400
G1 X-4.465 Y0.000 E72.1782
G1 X-2.925 Y0.000 E72.2935
G1 X-2.001 Y-1.600 E72.4317
G1 X-5.850 Y-1.600 E72.7198
G1 X-5.158 Y-0.400 E72.8235
G1 X-6.312 Y1.600 E72.9963
G1 X-8.930 Y1.600 E73.1922
G1 X-9.622 Y0.400 E73.2958
G1 X-8.468 Y-1.600 E73.4687
G1 X-9.391 Y-1.600 E73.5378
G1 X-10.315 Y0.000 E73.6761
G1 X-11.855 Y0.000 E73.7913
G1 X-12.779 Y1.600 E73.9295
G1 X-13.702 Y1.600 E73.9987
G1 X-12.548 Y-0.400 E74.1715
G1 X-13.241 Y-1.600 E74.2752
G1 X-15.858 Y-1.600 E74.4710
G1 X-17.013 Y0.400 E74.6439
G1 X-16.320 Y1.600 E74.7476
G1 X-16.774 Y1.600 E74.7815
G1 X-20.397 Y3.072 E75.0742
G1 X-20.708 Y2.534 E75.1207
G1 X-19.245 Y0.000 E75.3396
G1 X-17.705 Y0.000 E75.4548
G1 X-16.780 Y-1.603 E75.5933
G1 X-20.022 Y-2.920 E75.8552
G1 X-20.708 Y-1.733 E75.9578
G1 X-19.938 Y-0.400 E76.0730
G1 X-21.400 Y2.134 E76.2919
G1 X-22.940 Y2.134 E76.4071
G1 X-24.403 Y4.667 E76.6260
G1 X-24.388 Y4.693 E76.6283
G1 X-27.645 Y6.017 E76.8914
G1 X-26.635 Y4.267 E77.0426
G1 X-25.095 Y4.267 E77.1578
G1 X-23.633 Y1.734 E77.3767
G1 X-24.403 Y0.400 E77.4920
G1 X-22.940 Y-2.133 E77.7109
G1 X-21.400 Y-2.133 E77.8261
G1 X-20.771 Y-3.224 E77.9203
G1 X-24.013 Y-4.541 E78.1822
G1 X-24.403 Y-3.866 E78.2405
G1 X-23.633 Y-2.533 E78.3558
G1 X-25.095 Y0.000 E78.5747
G1 X-26.635 Y0.000 E78.6899
G1 X-28.098 Y2.534 E78.9088
